X: 3
T:Black Boy
% Nottingham Music Database
S:Mick Peat
M:2/4
L:1/4
K:A
|:"A"A "E"c/4B/4A/4G/4|"A"A/2c/2 e/2a/2|"E"g/2b/2 e/2d/2|"A"c/2AB/2|\
"A"c/2e/2 "B"^d/2f/2|"E"e/2ge/2|"B"f/2a/2 g/4f/4e/4^d/4|"E"e E:|
|:"A"e/2=gf/2|"D"f/4e/4d/4c/4 d|"E"B/2df/2|"A"e/4d/4c/4B/4 c|"F#m"A/2ce/2|\
"Bm"d/4c/4B/4A/4 "E"G/2B/2|"Bm"E/2d/2 "E"c/4B/4A/4G/4|"A"A2:|
M:6/8
K:D
|:"D"dd/2 cd/2|"A"e/2f/2e/2 e/2f/2g/2|"D"dd/2 "E"cd/2|"A"e/2c/2A/2 AA/2|
"D"dd/2 cd/2|"A"e/2f/2d/2 e/2f/2g/2|"D"a/2f/2d/2 "A"g/2e/2c/2|[1 "D"dd/2 d A/2:|[2 "D"dd/2 de/2||
|:"D"ff/2 f/2d/2f/2|"Em"gg/2 g/2e/2g/2|"D"ff/2 f/2d/2f/2|"A"e/2c/2A/2 Ag/2|
"D"f/2a/2f/2 "Bm"d/2e/2f/2|"Em"g/2b/2g/2 "A"e/2f/2g/2|\
"D"a/2f/2d/2 "A"g/2e/2c/2|[1 "D"dd/2 d e/2:|[2"D" dd/2 d3/2||


